dist/images/icons/icon-build.svg

<svg width="66" height="65" viewBox="0 0 66 65" fill="none" xmlns="http://www.w3.org/2000/svg">
<g opacity="0.1">
<rect x="0.75" y="0.75" width="64.5" height="63" rx="9.75" fill="#D9D9D9"/>
<rect x="0.75" y="0.75" width="64.5" height="63" rx="9.75" fill="url(#paint0_linear_542_73)"/>
<rect x="0.75" y="0.75" width="64.5" height="63" rx="9.75" stroke="url(#paint1_linear_542_73)" stroke-width="1.5"/>
</g>
<path fill-rule="evenodd" clip-rule="evenodd" d="M30.7812 20.1046C30.6533 20.1651 28.2341 21.6892 25.4051 23.4916C20.5054 26.6131 20.2553 26.7807 20.1308 27.0261C20.0012 27.2813 20 27.3072 20 29.7589C20 32.2102 20.0013 32.2366 20.1308 32.4935C20.2259 32.6822 20.3329 32.7896 20.5231 32.8873C20.8546 33.0578 21.1301 33.03 21.5215 32.7867C21.6798 32.6882 21.82 32.6076 21.8328 32.6076C21.8456 32.6076 21.8635 34.4716 21.8725 36.7498L21.8889 40.892L22.0224 41.1827C22.1969 41.5628 22.6174 41.9855 22.9878 42.1532C23.2773 42.2843 23.3312 42.2876 25.4342 42.3041C27.5761 42.3207 27.5857 42.3203 27.8462 42.1878C28.1275 42.0447 28.3692 41.6742 28.3692 41.3861C28.3692 41.0985 28.1275 40.7276 27.8484 40.5868C27.595 40.4589 27.5451 40.456 25.6543 40.456H23.7197V35.9272V31.3983L27.3957 29.0558C29.4175 27.7675 31.111 26.7132 31.159 26.7129C31.2069 26.7127 31.7954 27.0632 32.4667 27.4917C34.344 28.6904 34.2772 28.6543 34.6196 28.6543C35.4411 28.6543 35.8285 27.6549 35.2203 27.105C35.0038 26.9093 31.688 24.8103 31.4438 24.7143C31.3064 24.6604 31.1496 24.6427 31.0217 24.6667C30.8966 24.6902 29.1535 25.7643 26.4937 27.457C24.1152 28.9706 22.0995 30.2547 22.0145 30.3105L21.8598 30.4118L21.8599 29.1697L21.8601 27.9276L26.4812 24.9918C29.0227 23.377 31.1362 22.0587 31.1778 22.0622C31.2194 22.0656 33.4226 23.4495 36.0737 25.1374C38.7249 26.8253 40.9824 28.2435 41.0903 28.2889C41.499 28.4607 42.0198 28.2361 42.2101 27.8059C42.3424 27.5069 42.3217 27.2173 42.1479 26.9314C42.0731 26.8082 40.581 25.828 36.9352 23.5066C34.1259 21.7179 31.7117 20.1954 31.5705 20.1232C31.2592 19.9643 31.0864 19.9602 30.7812 20.1046ZM37 29.3288C33.1731 29.7148 30.1956 32.3941 29.4647 36.1095C29.2844 37.0262 29.2844 38.3046 29.4647 39.2213C30.1422 42.6654 32.7483 45.2324 36.2444 45.8996C36.9505 46.0343 38.3712 46.0333 39.1214 45.8976C42.1745 45.345 44.7341 43.0912 45.6311 40.1653C45.9139 39.2428 46 38.6594 46 37.6654C46 35.6182 45.358 33.863 44.0166 32.2429C42.8554 30.8405 40.975 29.7585 39.1504 29.443C38.6152 29.3504 37.4167 29.2867 37 29.3288ZM36.5031 31.2441C36.0138 31.3328 35.176 31.6137 34.7333 31.8375C33.5099 32.4562 32.3292 33.6749 31.7672 34.8989C31.2982 35.9202 31.1261 36.8159 31.1754 37.9791C31.2109 38.8179 31.3257 39.3493 31.6414 40.1358C32.2621 41.682 33.6529 43.0733 35.1987 43.6941C36.1676 44.0833 36.4799 44.1396 37.6684 44.1396C38.8568 44.1396 39.1691 44.0833 40.1381 43.6941C41.6838 43.0733 43.0747 41.682 43.6953 40.1358C44.0844 39.1666 44.1407 38.8542 44.1407 37.6654C44.1407 36.4767 44.0844 36.1642 43.6953 35.1951C43.1482 33.8322 41.9284 32.5076 40.6034 31.8375C40.138 31.6022 39.3207 31.3335 38.7866 31.2404C38.1829 31.1351 37.0951 31.1369 36.5031 31.2441ZM39.624 35.4388C39.4357 35.5168 39.2186 35.7736 38.2547 37.0582L37.1094 38.5848L36.4735 37.9568C35.9858 37.4752 35.7801 37.3117 35.5906 37.2554C34.9164 37.0549 34.2689 37.7024 34.4682 38.3776C34.5275 38.5786 34.7325 38.8184 35.5672 39.6632C36.8191 40.9305 37.0121 41.0432 37.5568 40.8252C37.7698 40.74 37.9607 40.5103 39.2816 38.7501C40.0985 37.6616 40.8053 36.6732 40.8522 36.5536C41.0136 36.1429 40.801 35.6433 40.3842 35.4542C40.0879 35.3196 39.9198 35.3162 39.624 35.4388Z" fill="#BAE9F1"/>
<defs>
<linearGradient id="paint0_linear_542_73" x1="33" y1="0" x2="52.1042" y2="87.4143" gradientUnits="userSpaceOnUse">
<stop stop-color="#2C4262"/>
<stop offset="1" stop-color="#202F45"/>
</linearGradient>
<linearGradient id="paint1_linear_542_73" x1="33" y1="0" x2="33" y2="64.5" gradientUnits="userSpaceOnUse">
<stop stop-color="white"/>
<stop offset="1" stop-color="white" stop-opacity="0"/>
</linearGradient>
</defs>
</svg>

<svg width="66" height="65" fill="none" xmlns="http://www.w3.org/2000/svg"><g opacity=".1"><rect x=".75" y=".75" width="64.5" height="63" rx="9.75" fill="#D9D9D9"/><rect x=".75" y=".75" width="64.5" height="63" rx="9.75" fill="url(#paint0_linear_542_73)"/><rect x=".75" y=".75" width="64.5" height="63" rx="9.75" stroke="url(#paint1_linear_542_73)" stroke-width="1.5"/></g><path fill-rule="evenodd" clip-rule="evenodd" d="M30.781 20.105c-.128.06-2.547 1.584-5.376 3.387-4.9 3.121-5.15 3.289-5.274 3.534-.13.255-.131.281-.131 2.733 0 2.451.001 2.478.13 2.734a.807.807 0 00.393.394c.332.17.607.143.998-.1a2.93 2.93 0 01.312-.18c.013 0 .03 1.865.04 4.143l.016 4.142.133.29c.175.38.595.803.966.971.29.131.343.135 2.446.151 2.142.017 2.152.016 2.412-.116.282-.143.523-.514.523-.802 0-.288-.241-.658-.52-.8-.254-.127-.304-.13-2.195-.13H23.72v-9.058l3.676-2.342c2.021-1.289 3.715-2.343 3.763-2.343.048 0 .636.35 1.308.779 1.877 1.198 1.81 1.162 2.153 1.162.821 0 1.209-1 .6-1.549-.216-.196-3.532-2.295-3.776-2.39a.801.801 0 00-.422-.048c-.125.023-1.868 1.097-4.528 2.79a2891.667 2891.667 0 00-4.48 2.854l-.154.1v-2.483l4.621-2.936c2.542-1.615 4.655-2.933 4.697-2.93.041.004 2.245 1.387 4.896 3.075 2.65 1.688 4.908 3.107 5.016 3.152.409.172.93-.053 1.12-.483a.894.894 0 00-.062-.875c-.075-.123-1.567-1.103-5.213-3.424-2.81-1.79-5.223-3.312-5.365-3.384-.31-.159-.484-.163-.789-.018zM37 29.329c-3.827.386-6.804 3.065-7.535 6.78-.18.917-.18 2.196 0 3.112.677 3.444 3.283 6.011 6.78 6.679.706.134 2.126.133 2.876-.002 3.053-.553 5.613-2.807 6.51-5.733.283-.922.369-1.506.369-2.5 0-2.047-.642-3.802-1.983-5.422-1.162-1.403-3.042-2.485-4.867-2.8-.535-.093-1.733-.156-2.15-.114zm-.497 1.915c-.49.089-1.327.37-1.77.593-1.223.62-2.404 1.838-2.966 3.062-.469 1.021-.64 1.917-.592 3.08.036.839.15 1.37.466 2.157.621 1.546 2.012 2.937 3.558 3.558.969.39 1.28.446 2.47.446 1.188 0 1.5-.057 2.47-.446 1.545-.62 2.936-2.012 3.556-3.558.39-.97.446-1.282.446-2.47 0-1.19-.057-1.502-.446-2.47-.547-1.364-1.767-2.688-3.092-3.358a7.817 7.817 0 00-1.816-.598c-.604-.105-1.692-.103-2.284.004zm3.121 4.195c-.188.078-.405.335-1.37 1.62l-1.145 1.526-.636-.628c-.487-.482-.693-.645-.882-.702-.675-.2-1.322.447-1.123 1.123.06.2.264.44 1.1 1.285 1.251 1.268 1.444 1.38 1.989 1.162.213-.085.404-.315 1.725-2.075.817-1.088 1.523-2.077 1.57-2.196.162-.411-.051-.91-.468-1.1-.296-.134-.464-.138-.76-.015z" fill="#BAE9F1"/><defs><linearGradient id="paint0_linear_542_73" x1="33" y1="0" x2="52.104" y2="87.414" gradientUnits="userSpaceOnUse"><stop stop-color="#2C4262"/><stop offset="1" stop-color="#202F45"/></linearGradient><linearGradient id="paint1_linear_542_73" x1="33" y1="0" x2="33" y2="64.5" gradientUnits="userSpaceOnUse"><stop stop-color="#fff"/><stop offset="1" stop-color="#fff" stop-opacity="0"/></linearGradient></defs></svg>
